X: 6721
T: Chain Cotillion
R: polka
M: 2/4
K: Gmajor
|:z|G2d2|BA/B/ GA/B/|cB AG|F/G/A/F/ D z|
E2F2|G/F/G/A/ Gd|BA/G/ AG/F/|G3:|
|:d|d/e/d/c/ Bd|d/e/d/c/ Bd|ed ef|g3 d|
gf/e/ dc/B/|ed/c/ BA/B/|cB AG|FE/F/ D z|
E2F2|G/F/G/A/ Gd|BA/G/ AG/F/|G3:|

